X:114
T:Mike Richey Special
C:Joe Carr
N:From "Windy Days and Dusty Skies" Flying Fish FF 70644 
L:1/8
Q:1/4=215
M:4/4
K:G
[G2G,2] [F2G,2] [E2G,2] [D2G,2] | [G2G,2] [F2G,2] [E2G,2] [D2G,2] | [G2G,2] [F2G,2] [E2G,2] [D2G,2] | [G2G,2] [F2G,2] [EG,]D EF |: "G"GF GB AF Ac | 
"Gdim7"^A^c AG E^C ^A,C | "G"B,D FA GA (3B^cd | "C"ec Bd cG AB | "C"cE Gc "Gdim7"^c^A GE | 
"G"DB, DF "E7"EF G^G |1 A"A7"^G AB ^cd eg | "D7"fc A2 c2 (3DEF :|2 "A7"AB c^c "D7"d^d ef | 
"G"g2 d2 G2 b^a |] "B"bB ^df ba gf | "Em"ef ge Be ge | "B"fg af ^de fd | "Em"e^d ef gf g^g | 
"A7"aA ^ce ag fe | "D"de fd Ad fa | "A7"fa bg ed ^ce | "D"df d2 "D7"c4 | "G"GF GB "D"AF Ac | 
"Gdim7"^A^c AG E^C ^A,C | "G"B,D FA GA (3B^cd | "C"ec Bd cG AB | "C"cE Gc "Gdim7"^c^A GE | 
"G"DB, DF "E7"EF G^G | "A7"AB c^c "D7"d^d ef | "G"g2 d2 G4 | z8 | z8 | z8 | 


